X:1454
T:Early Rising
M:C|
L:1/8
B:O'Neill's 1454
Z:"Transcribed by Bob Safranek, rjs@gsp.org"
K:D
DFAc  BGAF|DFFA BEEF|DFAF BFAd|1 gfed cAGE :|2 3fga eg fd d2||
d2 fd c2 ec|BdAF GFED|A,DFA DFAd|fadf e2 fg|
abaf  gfed|edfd edBc|edcdA BdAF|GBAF  D2 z2|]
